X:81
T:Bourree languedocienne 1
R:bourree 3 temps
C:trad.
A:Languedoc
O:France
Z:S. Piron
M:3/8
L:1/16
Q:1/4=110
K:G
d4e2|d2d2AB|c2dcBA|B4G2|d4e2|d2d2AB|c2dcBA|G6:|
|:c2ABAB|c2ABAB|c2dcBA|B4G2|c2ABAB|c2ABAB|c2dcBA|G6:||
